X:18
T:Oh What a Row. RHu.018
T:Adventures of a Steam Packet,The,aka. RHu.018
T:Da Ferry Reel,aka. RHu.018
T:Picnickery,aka. RHu.018
T:Tom Thumb,aka. RHu.018
S:R.Hughes MS,1823,Whitchurch,Shrops.
N:There is no repeat of the B music in the MS, but it sounds a little
N:more balanced as shown here.
N:Song first published in New York, 1822.
N:The Steam Packet was perhaps a New York day trip ferry.
A:Whitchurch, Shropshire
Z:Neil Brookes 2006
M:2/4
L:1/8
Q:1/2=90
R:Reel
C:as sung by James Barnes,N.Y.,1822
W:Oh! what a row! what a rumpus and a rioting.
K:C
c2GE|c2GE|cedc|cBAG|AcBA|AGFE|FG c2|c4|!
c2GE|c2GE|cedc|cBAG|AcBA|AGFE|F2G2|c4|!
|:eeec|eeec|eege|c2cc|dddB|dddB|GBAG|EFC2:|

